**harmony	**harte	**kern	**silbe	**rhyme	**timestamp	**phrase
*M4/4	*M4/4	*ICvox	*	*	*	*
*	*	*VRlead	*	*	*	*
*	*	*Hstimme	*	*	*	*
*A:	*A:	*A:	*	*	*	*
*	*	*M4/4	*	*	*	*
*	*	*clefG2	*	*	*	*
1r;	1r	r;	.	.	0	.
=1	=1	=1	=1	=1	=1	=1
*>Letter>A	*>Letter>A	*>Letter>A	*>Letter>A	*>Letter>A	*>Letter>A	*>Letter>A
*>Label>Intro	*>Label>Intro	*>Label>Intro	*>Label>Intro	*>Label>Intro	*>Label>Intro	*>Label>Intro
1AM	A:maj	1r	.	.	1.004	newline
=2	=2	=2	=2	=2	=2	=2
1AM	A:maj	1r	.	.	3.064	.
=3	=3	=3	=3	=3	=3	=3
1AM	A:maj	1r	.	.	5.123	.
=4	=4	=4	=4	=4	=4	=4
1AM	A:maj	1r	.	.	7.182	.
=5	=5	=5	=5	=5	=5	=5
1GM	G:maj	1r	.	.	9.242	newline
=6	=6	=6	=6	=6	=6	=6
1GM	G:maj	1r	.	.	11.308	.
=7	=7	=7	=7	=7	=7	=7
*>Letter>B	*>Letter>B	*>Letter>B	*>Letter>B	*>Letter>B	*>Letter>B	*>Letter>B
*>Label>Verse	*>Label>Verse	*>Label>Verse	*>Label>Verse	*>Label>Verse	*>Label>Verse	*>Label>Verse
1AM	A:maj	8r	.	.	13.375	newline
.	.	8c#	You're	.	.	.
.	.	8c#	not	.	.	.
.	.	8c#	sure	.	.	.
.	.	8c#	what	.	.	.
.	.	8B	you	.	.	.
.	.	8B	want	.	.	.
.	.	8B	to	.	.	.
=8	=8	=8	=8	=8	=8	=8
1AM	A:maj	8B	do	.	15.441	.
.	.	8A	with	.	.	.
.	.	8A	your	.	.	.
.	.	8A	life,	.	.	.
.	.	8r	.	.	.	.
.	.	8c#	but	.	.	.
.	.	4c#	you	.	.	.
=9	=9	=9	=9	=9	=9	=9
1DM	D:maj	4c#	sure	.	17.508	.
.	.	8B	don't	.	.	.
.	.	8B	want	.	.	.
.	.	8A	me	.	.	.
.	.	8B	in	(A	.	.
.	.	4c#	it.	a)	.	.
=10	=10	=10	=10	=10	=10	=10
1DM	D:maj	1r	.	.	19.574	.
=11	=11	=11	=11	=11	=11	=11
1AM	A:maj	4r	.	.	21.641	newline
.	.	8c#	Yeah,	.	.	.
.	.	8c#	you're	.	.	.
.	.	8c#	sure	.	.	.
.	.	8B	the	.	.	.
.	.	8B	life	.	.	.
.	.	8B	you're	.	.	.
=12	=12	=12	=12	=12	=12	=12
1AM	A:maj	8B	li-	.	23.708	.
.	.	8A	-ving	.	.	.
.	.	8A	with	.	.	.
.	.	8A	me	.	.	.
.	.	6r	.	.	.	.
.	.	6c#	can't	.	.	.
.	.	6c#	go	.	.	.
=13	=13	=13	=13	=13	=13	=13
1DM	D:maj	4c#	on	.	25.774	.
.	.	4B	one	.	.	.
.	.	8B	sin-	.	.	.
.	.	8A	-gle	.	.	.
.	.	8B	mi-	(A	.	.
.	.	8c#	-nute.	a)	.	.
=14	=14	=14	=14	=14	=14	=14
2DM	D:maj	1r	.	.	27.841	.
4GM	G:maj	.	.	.	28.874	.
4DM	D:maj	.	.	.	29.391	.
=15	=15	=15	=15	=15	=15	=15
1EM	E:maj	8r	.	.	29.907	newline
.	.	8A	And	.	.	.
.	.	8e	there's	.	.	.
.	.	8e	a	.	.	.
.	.	8e	new	.	.	.
.	.	8d	one	.	.	.
.	.	8d	wait-	.	.	.
.	.	8d	-ing	.	.	.
=16	=16	=16	=16	=16	=16	=16
1F#m	F#:min	8d	out-	.	31.974	.
.	.	8c#	-side	.	.	.
.	.	8c#	this	.	.	.
.	.	[8c#	door.	.	.	.
.	.	8c#]	_	.	.	.
.	.	8A	And	.	.	.
.	.	8e	now's	.	.	.
.	.	8e	the	.	.	.
=17	=17	=17	=17	=17	=17	=17
1DM	D:maj	4e	time	.	34.04	.
.	.	12A	to	.	.	.
.	.	12A	be-	.	.	.
.	.	12B	-gin	(A	.	.
.	.	4c#	it.	a)	.	.
.	.	4r	.	.	.	.
=18	=18	=18	=18	=18	=18	=18
2DM	D:maj	1r	.	.	36.107	.
4GM	G:maj	.	.	.	37.14	.
4DM	D:maj	.	.	.	37.657	.
=19	=19	=19	=19	=19	=19	=19
*>Letter>C	*>Letter>C	*>Letter>C	*>Letter>C	*>Letter>C	*>Letter>C	*>Letter>C
*>Label>Prechorus	*>Label>Prechorus	*>Label>Prechorus	*>Label>Prechorus	*>Label>Prechorus	*>Label>Prechorus	*>Label>Prechorus
1EM	E:maj	4r	.	.	38.174	newline
.	.	8r	.	.	.	.
.	.	8b	You	.	.	.
.	.	8b	found	.	.	.
.	.	8b	a	.	.	.
.	.	8cc#	new	.	.	.
.	.	[8dd	world	.	.	.
=20	=20	=20	=20	=20	=20	=20
1DM	D:maj	4dd]	_	.	40.217	.
.	.	8a	and	.	.	.
.	.	8a	you	.	.	.
.	.	8a	want	.	.	.
.	.	8a	to	.	.	.
.	.	8f#	taste	B	.	.
.	.	8e	it,	.	.	.
=21	=21	=21	=21	=21	=21	=21
1EM	E:maj	4r	.	.	42.26	.
.	.	8b	but	.	.	.
.	.	8b	that	.	.	.
.	.	8b	world	.	.	.
.	.	8b	can	.	.	.
.	.	8cc#	turn	.	.	.
.	.	[8dd	cold	.	.	.
=22	=22	=22	=22	=22	=22	=22
1DM	D:maj	8dd]	_	.	44.304	.
.	.	8r	.	.	.	.
.	.	16r	.	.	.	.
.	.	16a	and	.	.	.
.	.	8a	you	.	.	.
.	.	8dd	bet-	.	.	.
.	.	8cc#	-ter	.	.	.
.	.	8dd	face	B	.	.
.	.	[8ee	it.	.	.	.
=23	=23	=23	=23	=23	=23	=23
*>Letter>D	*>Letter>D	*>Letter>D	*>Letter>D	*>Letter>D	*>Letter>D	*>Letter>D
*>Label>Chorus	*>Label>Chorus	*>Label>Chorus	*>Label>Chorus	*>Label>Chorus	*>Label>Chorus	*>Label>Chorus
1AM	A:maj	4ee]	_	.	46.347	newline
.	.	4r	.	.	.	.
.	.	8cc#	Who	.	.	.
.	.	8cc#	will	.	.	.
.	.	8cc#	you	.	.	.
.	.	[8cc#	run	.	.	.
=24	=24	=24	=24	=24	=24	=24
1EM	E:maj/3	8cc#]	_	.	48.414	.
.	.	8b	to	.	.	.
.	.	8b	when	.	.	.
.	.	8a	it	.	.	.
.	.	4b	all	.	.	.
.	.	4cc#	falls	.	.	.
=25	=25	=25	=25	=25	=25	=25
1DM	D:maj	4a	down?	C	50.48	.
.	.	4r	.	.	.	.
.	.	8a	Who's	.	.	.
.	.	8a	gon-	.	.	.
.	.	8a	-na	.	.	.
.	.	[8cc#	pick	.	.	.
=26	=26	=26	=26	=26	=26	=26
1GM	G:maj	8cc#]	_	.	52.547	.
.	.	8f#	your	.	.	.
.	.	8a	world	.	.	.
.	.	8a	up	.	.	.
.	.	6cc#	off	.	.	.
.	.	6f#	of	.	.	.
.	.	[6a	the	.	.	.
=27	=27	=27	=27	=27	=27	=27
1AM	A:maj	8a]	_	.	54.613	newline
.	.	8a	ground?	C	.	.
.	.	4r	.	.	.	.
.	.	8cc#	Who's	.	.	.
.	.	8cc#	gon-	.	.	.
.	.	8cc#	-na	.	.	.
.	.	[8cc#	take	.	.	.
=28	=28	=28	=28	=28	=28	=28
1EM	E:maj/3	8cc#]	_	.	56.692	.
.	.	8b	a-	.	.	.
.	.	8b	-way	.	.	.
.	.	8a	the	.	.	.
.	.	4b	tears	.	.	.
.	.	4cc#	you	.	.	.
=29	=29	=29	=29	=29	=29	=29
1DM	D:maj	4a	cry?	D	58.77	.
.	.	4r	.	.	.	.
.	.	8a	Who's	.	.	.
.	.	8a	gon-	.	.	.
.	.	8a	-na	.	.	.
.	.	[8b	love	.	.	.
=30	=30	=30	=30	=30	=30	=30
1GM	G:maj	8b]	_	.	60.848	.
.	.	8f#	you	.	.	.
.	.	8a	ba-	.	.	.
.	.	8a	-by	.	.	.
.	.	8a	as	.	.	.
.	.	8cc#	good	.	.	.
.	.	[4a	as	.	.	.
=31	=31	=31	=31	=31	=31	=31
*>Letter>A	*>Letter>A	*>Letter>A	*>Letter>A	*>Letter>A	*>Letter>A	*>Letter>A
*>Label>Trans	*>Label>Trans	*>Label>Trans	*>Label>Trans	*>Label>Trans	*>Label>Trans	*>Label>Trans
1AM	A:maj	8a]	_	.	62.926	newline
.	.	4.a	I?	D	.	.
.	.	2r	.	.	.	.
=32	=32	=32	=32	=32	=32	=32
1AM	A:maj	1r	.	.	64.993	.
=33	=33	=33	=33	=33	=33	=33
1AM	A:maj	1r	.	.	67.059	.
=34	=34	=34	=34	=34	=34	=34
1AM	A:maj	1r	.	.	69.126	.
=35	=35	=35	=35	=35	=35	=35
1GM	G:maj	1r	.	.	71.192	newline
=36	=36	=36	=36	=36	=36	=36
1GM	G:maj	1r	.	.	73.236	.
=37	=37	=37	=37	=37	=37	=37
*>Letter>B	*>Letter>B	*>Letter>B	*>Letter>B	*>Letter>B	*>Letter>B	*>Letter>B
*>Label>Verse	*>Label>Verse	*>Label>Verse	*>Label>Verse	*>Label>Verse	*>Label>Verse	*>Label>Verse
1AM	A:maj	8r	.	.	75.279	newline
.	.	8c#	You	.	.	.
.	.	8c#	won't	.	.	.
.	.	8c#	know	.	.	.
.	.	8c#	what	.	.	.
.	.	8B	it's	.	.	.
.	.	8B	like	.	.	.
.	.	8B	to	.	.	.
=38	=38	=38	=38	=38	=38	=38
1AM	A:maj	8B	live	.	77.334	.
.	.	8A	on	.	.	.
.	.	8A	your	.	.	.
.	.	8A	own.	.	.	.
.	.	4r	.	.	.	.
.	.	12c#	You've	.	.	.
.	.	12c#	al-	.	.	.
.	.	12c#	-ways	.	.	.
=39	=39	=39	=39	=39	=39	=39
1DM	D:maj	8c#	had	.	79.389	.
.	.	8B	me	.	.	.
.	.	8B	there	.	.	.
.	.	8A	be-	.	.	.
.	.	4B	-side	D	.	.
.	.	4c#	you.	E	.	.
=40	=40	=40	=40	=40	=40	=40
1DM	D:maj	1r	.	.	81.444	.
=41	=41	=41	=41	=41	=41	=41
1AM	A:maj	8r	.	.	83.499	newline
.	.	8c#	You	.	.	.
.	.	8c#	think	.	.	.
.	.	8c#	it's	.	.	.
.	.	8c#	ea-	.	.	.
.	.	8B	-sy	.	.	.
.	.	8B	fin-	.	.	.
.	.	8B	-ding	.	.	.
=42	=42	=42	=42	=42	=42	=42
1AM	A:maj	8B	some-	.	85.566	.
.	.	8A	-one	.	.	.
.	.	8A	out	.	.	.
.	.	8A	there	.	.	.
.	.	8r	.	.	.	.
.	.	8c#	who's	.	.	.
.	.	8c#	gon-	.	.	.
.	.	8c#	-na	.	.	.
=43	=43	=43	=43	=43	=43	=43
1DM	D:maj	4e	care	.	87.632	.
.	.	12c#	as	.	.	.
.	.	12B	much	.	.	.
.	.	12A	as	.	.	.
.	.	4.B	I	D	.	.
.	.	[8A	do.	E	.	.
=44	=44	=44	=44	=44	=44	=44
2DM	D:maj	4A]	_	.	89.699	.
.	.	4r	.	.	.	.
4GM	G:maj	2r	.	.	90.732	.
4DM	D:maj	.	.	.	91.249	.
=45	=45	=45	=45	=45	=45	=45
1EM	E:maj	8r	.	.	91.765	newline
.	.	8e	What's	.	.	.
.	.	8e	gon-	.	.	.
.	.	8e	-na	.	.	.
.	.	8e	hap-	.	.	.
.	.	8d	-pen	.	.	.
.	.	8d	ba-	.	.	.
.	.	8d	-by	.	.	.
=46	=46	=46	=46	=46	=46	=46
1F#m	F#:min	8d	when	.	93.832	.
.	.	8c#	you	.	.	.
.	.	8c#	find	.	.	.
.	.	8c#	out	.	.	.
.	.	4r	.	.	.	.
.	.	8e	there's	.	.	.
.	.	8e	no	.	.	.
=47	=47	=47	=47	=47	=47	=47
1DM	D:maj	8e	one	.	95.898	.
.	.	8e	there	.	.	.
.	.	8A	to	.	.	.
.	.	4B	cry	D	.	.
.	.	4.c#	to?	E	.	.
=48	=48	=48	=48	=48	=48	=48
2DM	D:maj	1r	.	.	97.965	.
4GM	G:maj	.	.	.	98.998	.
4DM	D:maj	.	.	.	99.515	.
=49	=49	=49	=49	=49	=49	=49
*>Letter>C	*>Letter>C	*>Letter>C	*>Letter>C	*>Letter>C	*>Letter>C	*>Letter>C
*>Label>Prechorus	*>Label>Prechorus	*>Label>Prechorus	*>Label>Prechorus	*>Label>Prechorus	*>Label>Prechorus	*>Label>Prechorus
1EM	E:maj	4r	.	.	100.032	newline
.	.	8b	You	.	.	.
.	.	8b	can	.	.	.
.	.	8b	tell	.	.	.
.	.	8b	the	.	.	.
.	.	8cc#	whole	.	.	.
.	.	[8dd	world	.	.	.
=50	=50	=50	=50	=50	=50	=50
1DM	D:maj	4dd]	_	.	102.087	.
.	.	8a	how	.	.	.
.	.	8a	you're	.	.	.
.	.	8a	gon-	.	.	.
.	.	8a	-na	.	.	.
.	.	8f#	make	B	.	.
.	.	8e	it.	.	.	.
=51	=51	=51	=51	=51	=51	=51
1EM	E:maj	4r	.	.	104.141	.
.	.	8b	You	.	.	.
.	.	8b	can	.	.	.
.	.	8b	fol-	.	.	.
.	.	8b	-low	.	.	.
.	.	8cc#	you	.	.	.
.	.	8dd	heart,	.	.	.
=52	=52	=52	=52	=52	=52	=52
1DM	D:maj	8r	.	.	106.196	.
.	.	16a	what	.	.	.
.	.	16a	you	.	.	.
.	.	8dd	do	.	.	.
.	.	8a	when	.	.	.
.	.	8dd	some-	.	.	.
.	.	8cc#	-one	.	.	.
.	.	8dd	breaks	B	.	.
.	.	[8ee	it?	.	.	.
=53	=53	=53	=53	=53	=53	=53
*>Letter>D	*>Letter>D	*>Letter>D	*>Letter>D	*>Letter>D	*>Letter>D	*>Letter>D
*>Label>Chorus	*>Label>Chorus	*>Label>Chorus	*>Label>Chorus	*>Label>Chorus	*>Label>Chorus	*>Label>Chorus
1AM	A:maj	4ee]	_	.	108.251	newline
.	.	4r	.	.	.	.
.	.	8cc#	Who	.	.	.
.	.	8cc#	will	.	.	.
.	.	8cc#	you	.	.	.
.	.	[8cc#	run	.	.	.
=54	=54	=54	=54	=54	=54	=54
1EM	E:maj/3	8cc#]	_	.	110.33	.
.	.	8b	to	.	.	.
.	.	8b	when	.	.	.
.	.	8a	it	.	.	.
.	.	4b	all	.	.	.
.	.	4cc#	falls	.	.	.
=55	=55	=55	=55	=55	=55	=55
1DM	D:maj	4a	down?	C	112.408	.
.	.	4r	.	.	.	.
.	.	8a	Who's	.	.	.
.	.	8a	gon-	.	.	.
.	.	8a	-na	.	.	.
.	.	[8cc#	pick	.	.	.
=56	=56	=56	=56	=56	=56	=56
1GM	G:maj	8cc#]	_	.	114.486	.
.	.	8f#	you	.	.	.
.	.	8a	world	.	.	.
.	.	8a	up	.	.	.
.	.	6cc#	off	.	.	.
.	.	6f#	of	.	.	.
.	.	[6a	the	.	.	.
=57	=57	=57	=57	=57	=57	=57
1AM	A:maj	8a]	_	.	116.564	newline
.	.	8a	ground?	C	.	.
.	.	4r	.	.	.	.
.	.	8cc#	Who's	.	.	.
.	.	8cc#	gon-	.	.	.
.	.	8cc#	-na	.	.	.
.	.	[8cc#	take	B	.	.
=58	=58	=58	=58	=58	=58	=58
1EM	E:maj/3	8cc#]	_	.	118.631	.
.	.	8b	a-	.	.	.
.	.	8b	-way	.	.	.
.	.	8a	the	.	.	.
.	.	4b	tears	.	.	.
.	.	4cc#	you	.	.	.
=59	=59	=59	=59	=59	=59	=59
1DM	D:maj	4a	cry?	D	120.697	.
.	.	4r	.	.	.	.
.	.	8a	Who's	.	.	.
.	.	8a	gon-	.	.	.
.	.	8a	-na	.	.	.
.	.	[8b	love	.	.	.
=60	=60	=60	=60	=60	=60	=60
1GM	G:maj	8b]	_	.	122.764	.
.	.	8f#	you	.	.	.
.	.	8a	ba-	.	.	.
.	.	8a	-by	.	.	.
.	.	8a	as	.	.	.
.	.	8cc#	good	.	.	.
.	.	[4a	as	.	.	.
=61	=61	=61	=61	=61	=61	=61
*>Letter>A	*>Letter>A	*>Letter>A	*>Letter>A	*>Letter>A	*>Letter>A	*>Letter>A
*>Label>Solo	*>Label>Solo	*>Label>Solo	*>Label>Solo	*>Label>Solo	*>Label>Solo	*>Label>Solo
1AM	A:maj	8a]	_	.	124.83	newline
.	.	16a	I?	D	.	.
.	.	16f#	_	.	.	.
.	.	8e	_	.	.	.
.	.	8r	.	.	.	.
.	.	2r	.	.	.	.
=62	=62	=62	=62	=62	=62	=62
1AM	A:maj	1r	.	.	126.897	.
=63	=63	=63	=63	=63	=63	=63
1AM	A:maj	1r	.	.	128.964	.
=64	=64	=64	=64	=64	=64	=64
1AM	A:maj	1r	.	.	131.03	.
=65	=65	=65	=65	=65	=65	=65
1GM	G:maj	1r	.	.	133.097	newline
=66	=66	=66	=66	=66	=66	=66
1GM	G:maj	1r	.	.	135.14	.
=67	=67	=67	=67	=67	=67	=67
1AM	A:maj	1r	.	.	137.183	newline
=68	=68	=68	=68	=68	=68	=68
1AM	A:maj	1r	.	.	139.25	.
=69	=69	=69	=69	=69	=69	=69
1AM	A:maj	1r	.	.	141.317	.
=70	=70	=70	=70	=70	=70	=70
1AM	A:maj	1r	.	.	143.383	.
=71	=71	=71	=71	=71	=71	=71
1GM	G:maj	1r	.	.	145.45	newline
=72	=72	=72	=72	=72	=72	=72
1GM	G:maj	1r	.	.	147.493	.
=73	=73	=73	=73	=73	=73	=73
*>Letter>C2	*>Letter>C2	*>Letter>C2	*>Letter>C2	*>Letter>C2	*>Letter>C2	*>Letter>C2
*>Label>Prechorus	*>Label>Prechorus	*>Label>Prechorus	*>Label>Prechorus	*>Label>Prechorus	*>Label>Prechorus	*>Label>Prechorus
1EM	E:maj	4r	.	.	149.537	newline
.	.	8r	.	.	.	.
.	.	8b	You	.	.	.
.	.	8b	found	.	.	.
.	.	8b	a	.	.	.
.	.	8cc#	new	.	.	.
.	.	[8dd	world	.	.	.
=74	=74	=74	=74	=74	=74	=74
1DM	D:maj	4dd]	_	.	151.598	.
.	.	8a	and	.	.	.
.	.	8a	you	.	.	.
.	.	8a	want	.	.	.
.	.	8a	to	.	.	.
.	.	8f#	taste	B	.	.
.	.	8e	it,	.	.	.
=75	=75	=75	=75	=75	=75	=75
1EM	E:maj	4r	.	.	153.66	.
.	.	8b	but	.	.	.
.	.	8b	that	.	.	.
.	.	8b	world	.	.	.
.	.	8b	can	.	.	.
.	.	8cc#	turn	.	.	.
.	.	[8dd	cold	.	.	.
=76	=76	=76	=76	=76	=76	=76
1DM	D:maj	4dd]	_	.	155.722	.
.	.	8r	.	.	.	.
.	.	16a	and	.	.	.
.	.	16a	you	.	.	.
.	.	8dd	bet-	.	.	.
.	.	8cc#	-ter	.	.	.
.	.	8dd	face	B	.	.
.	.	[8ee	it.	.	.	.
=77	=77	=77	=77	=77	=77	=77
1DM	D:maj	1ee]	_	.	157.784	.
=78	=78	=78	=78	=78	=78	=78
*>Letter>D2	*>Letter>D2	*>Letter>D2	*>Letter>D2	*>Letter>D2	*>Letter>D2	*>Letter>D2
*>Label>Chorus	*>Label>Chorus	*>Label>Chorus	*>Label>Chorus	*>Label>Chorus	*>Label>Chorus	*>Label>Chorus
1AM	A:maj	2r	.	.	159.846	newline
.	.	8cc#	Who	.	.	.
.	.	8cc#	will	.	.	.
.	.	8cc#	you	.	.	.
.	.	[8cc#	run	.	.	.
=79	=79	=79	=79	=79	=79	=79
1EM	E:maj/3	8cc#]	_	.	161.913	.
.	.	8b	to	.	.	.
.	.	8b	when	.	.	.
.	.	8a	it	.	.	.
.	.	4b	all	.	.	.
.	.	4cc#	falls	.	.	.
=80	=80	=80	=80	=80	=80	=80
1DM	D:maj	4a	down?	C	163.979	.
.	.	4r	.	.	.	.
.	.	8a	Who's	.	.	.
.	.	8a	gon-	.	.	.
.	.	8a	-na	.	.	.
.	.	[8cc#	pick	.	.	.
=81	=81	=81	=81	=81	=81	=81
1GM	G:maj	8cc#]	_	.	166.046	.
.	.	8f#	you	.	.	.
.	.	8a	world	.	.	.
.	.	8a	up	.	.	.
.	.	6cc#	off	.	.	.
.	.	6f#	of	.	.	.
.	.	[6a	the	.	.	.
=82	=82	=82	=82	=82	=82	=82
1AM	A:maj	8a]	_	.	168.112	newline
.	.	8a	ground?	C	.	.
.	.	8f#	_	.	.	.
.	.	8r	.	.	.	.
.	.	8cc#	Who's	.	.	.
.	.	8cc#	gon-	.	.	.
.	.	8cc#	-na	.	.	.
.	.	[8cc#	take	.	.	.
=83	=83	=83	=83	=83	=83	=83
1EM	E:maj/3	8cc#]	_	.	170.156	.
.	.	8b	a-	.	.	.
.	.	8b	-way	.	.	.
.	.	8a	the	.	.	.
.	.	4b	tears	.	.	.
.	.	4cc#	you	.	.	.
=84	=84	=84	=84	=84	=84	=84
1GM	G:maj	4a	cry?	D	172.199	.
.	.	4r	.	.	.	.
.	.	8a	Who's	.	.	.
.	.	8a	gon-	.	.	.
.	.	8a	-na	.	.	.
.	.	[8b	love	.	.	.
=85	=85	=85	=85	=85	=85	=85
1GM	G:maj	8b]	_	.	174.243	.
.	.	8f#	you	.	.	.
.	.	8a	ba-	.	.	.
.	.	8a	-by	.	.	.
.	.	8a	as	.	.	.
.	.	8cc#	good	.	.	.
.	.	[4a	as	.	.	.
=86	=86	=86	=86	=86	=86	=86
*>Letter>A2	*>Letter>A2	*>Letter>A2	*>Letter>A2	*>Letter>A2	*>Letter>A2	*>Letter>A2
*>Label>Trans	*>Label>Trans	*>Label>Trans	*>Label>Trans	*>Label>Trans	*>Label>Trans	*>Label>Trans
1AM	A:maj	8a]	_	.	176.286	newline
.	.	4.a	I?	D	.	.
.	.	2r	.	.	.	.
=87	=87	=87	=87	=87	=87	=87
1AM	A:maj	1r	.	.	178.399	.
=88	=88	=88	=88	=88	=88	=88
*>Letter>D2	*>Letter>D2	*>Letter>D2	*>Letter>D2	*>Letter>D2	*>Letter>D2	*>Letter>D2
*>Label>Outro	*>Label>Outro	*>Label>Outro	*>Label>Outro	*>Label>Outro	*>Label>Outro	*>Label>Outro
1AM	A:maj	2r	.	.	180.512	newline
.	.	8cc#	Who	.	.	.
.	.	8cc#	will	.	.	.
.	.	8cc#	you	.	.	.
.	.	[8cc#	run	.	.	.
=89	=89	=89	=89	=89	=89	=89
1EM	E:maj/3	8cc#]	_	.	182.579	.
.	.	8b	to	.	.	.
.	.	8b	when	.	.	.
.	.	8a	it	.	.	.
.	.	4b	all	.	.	.
.	.	4cc#	falls	.	.	.
=90	=90	=90	=90	=90	=90	=90
1GM	G:maj	4a	down?	C	184.645	.
.	.	4r	.	.	.	.
.	.	8a	Who's	.	.	.
.	.	8a	gon-	.	.	.
.	.	8a	-na	.	.	.
.	.	[8cc#	pick	.	.	.
=91	=91	=91	=91	=91	=91	=91
1GM	G:maj	8cc#]	_	.	186.712	.
.	.	8f#	you	.	.	.
.	.	8a	world	.	.	.
.	.	8a	up	.	.	.
.	.	6cc#	off	.	.	.
.	.	6f#	of	.	.	.
.	.	[6a	the	.	.	.
=92	=92	=92	=92	=92	=92	=92
1AM	A:maj	8a]	_	.	188.778	newline
.	.	8a	ground?	C	.	.
.	.	8f#	_	.	.	.
.	.	8r	.	.	.	.
.	.	8cc#	Who's	.	.	.
.	.	8cc#	gon-	.	.	.
.	.	8cc#	-na	.	.	.
.	.	[8cc#	take	.	.	.
=93	=93	=93	=93	=93	=93	=93
1EM	E:maj/3	8cc#]	_	.	190.833	.
.	.	8b	a-	.	.	.
.	.	8b	-way	.	.	.
.	.	8a	the	.	.	.
.	.	4b	tears	.	.	.
.	.	4cc#	you	.	.	.
=94	=94	=94	=94	=94	=94	=94
1GM	G:maj	4a	cry?	D	192.888	.
.	.	4r	.	.	.	.
.	.	8a	Who's	.	.	.
.	.	8a	gon-	.	.	.
.	.	8a	-na	.	.	.
.	.	[8b	love	.	.	.
=95	=95	=95	=95	=95	=95	=95
1GM	G:maj	8b]	_	.	194.943	.
.	.	8f#	you	.	.	.
.	.	8a	ba-	.	.	.
.	.	8a	-by	.	.	.
.	.	8a	as	.	.	.
.	.	8cc#	good	.	.	.
.	.	[4a	as	.	.	.
=96	=96	=96	=96	=96	=96	=96
1AM	A:maj	8a]	_	.	196.998	newline
.	.	4.a	I?	D	.	.
.	.	2r	.	.	.	.
=97	=97	=97	=97	=97	=97	=97
1EM	E:maj/3	1r	.	.	199.053	.
=98	=98	=98	=98	=98	=98	=98
1GM	G:maj	1r	.	.	201.108	.
=99	=99	=99	=99	=99	=99	=99
1GM	G:maj	1r	.	.	203.163	.
=100	=100	=100	=100	=100	=100	=100
1AM	A:maj	1r	.	.	205.218	newline
=101	=101	=101	=101	=101	=101	=101
1EM	E:maj/3	1r	.	.	207.285	.
=102	=102	=102	=102	=102	=102	=102
1GM	G:maj	1r	.	.	209.351	.
=103	=103	=103	=103	=103	=103	=103
1GM	G:maj	1r	.	.	211.418	.
=104	=104	=104	=104	=104	=104	=104
1AM	A:maj	1r	.	.	213.484	newline
=105	=105	=105	=105	=105	=105	=105
1EM	E:maj/3	1r	.	.	215.551	.
=106	=106	=106	=106	=106	=106	=106
1GM	G:maj	1r	.	.	217.617	.
=107	=107	=107	=107	=107	=107	=107
1GM	G:maj	1r	.	.	219.684	.
=108	=108	=108	=108	=108	=108	=108
*>Label>>Fadeout	*>Label>>Fadeout	*>Label>>Fadeout	*>Label>>Fadeout	*>Label>>Fadeout	*>Label>>Fadeout	*>Label>>Fadeout
1AM	A:maj	1r	.	.	221.751	newline
=109	=109	=109	=109	=109	=109	=109
1EM	E:maj/3	1r	.	.	223.806	.
=110	=110	=110	=110	=110	=110	=110
1GM	G:maj	1r	.	.	225.86	.
=111	=111	=111	=111	=111	=111	=111
1GM	G:maj	1r	.	.	227.915	.
=112	=112	=112	=112	=112	=112	=112
1AM	A:maj	1r	.	.	229.97	newline
=113	=113	=113	=113	=113	=113	=113
1EM	E:maj/3	1r	.	.	232.049	.
=114	=114	=114	=114	=114	=114	=114
1GM	G:maj	1r	.	.	234.127	.
=115	=115	=115	=115	=115	=115	=115
1GM	G:maj	1r	.	.	236.205	.
=116	=116	=116	=116	=116	=116	=116
1AM	A:maj	1r	.	.	238.283	newline
=117	=117	=117	=117	=117	=117	=117
1EM	E:maj/3	1r	.	.	239.462	.
=118	=118	=118	=118	=118	=118	=118
1GM	G:maj	1r	.	.	240.64	.
=119	=119	=119	=119	=119	=119	=119
1GM	G:maj	1r	.	.	241.818	.
1r;	1r	r;	.	.	242.997	.
1r;	1r	r;	.	.	245.42	.
*-	*-	*-	*-	*-	*-	*-
!!!BillboardChartDate: 1987/12/12
!!!BillboardPeak: 7
!!!BillboardWeeksOnChart: 22
!!!COC: Heart
!!!ENC: Nathaniel Condit-Schultz
!!!EST: Awating manual error checking and editing.
!!!OTL: Who Will You Run To
!!!RDF**chordsym: original McGill chord annotation + (implied pitch class set, with bass pitch in first position)
!!!RDF**harmony: **recip + pitch class of root + harmonic quality
!!!RDF**leadinstrument: original McGill primary instrumentation annotation
!!!RDF**phrase: newline = linebreak in original McGill transcription
!!!RDF**timestamp: McGill audio timestamp in seconds
!!!RDT: 2017/01/12/
!!!SampleActualRank: 90
!!!SampleID#: 1089
!!!SampleTargetRank: 89
!!!MBID: 4433e69e-9cce-40ce-999b-725ea77ea65d
